public/static/tokens/MATIC.svg

<svg fill="none" viewBox="0 0 24 24" xmlns="http://www.w3.org/2000/svg"><path d="m12 24c6.6274 0 12-5.3726 12-12 0-6.62742-5.3726-12-12-12-6.62742 0-12 5.37258-12 12 0 6.6274 5.37258 12 12 12z" fill="#854ce6"/><path d="m15.9325 18.8994.102-.0414 1.7097-.9941 1.7639-1.0236c.0941-.0513.1792-.1172.2519-.1953.129-.1358.2127-.3071.24-.4911 0-.0829 0-4.1421 0-4.2308-.0326-.2041-.1266-.3937-.27-.5444-.1342-.125-.2857-.2306-.4499-.3136l-3.2096-1.85208c-.1347-.06032-.281-.09152-.429-.09152-.1479 0-.2941.0312-.4289.09152-.054 0-.42.23076-1.2299.69822l-1.9677 1.14206-1.9438 1.1242c-.59989.3669-1.15782.6746-1.19982.6864-.1356.068-.28585.1024-.43792.1006-.15062.0003-.29969-.0298-.43796-.0887-.06599 0-1.85977-1.0592-1.95576-1.1302-.09393-.0705-.17682-.1542-.24597-.2485-.07677-.1156-.13164-.2439-.16198-.3788-.02143-.3942-.02143-.7892 0-1.18339-.04825-.45936-.03413-.92302.042-1.37869.03943-.11126.09391-.21675.16198-.31361.06809-.09182.15121-.17183.24597-.2367.07199-.04734 1.79977-1.05916 1.85376-1.10058.13924-.0632.29068-.09592.44394-.09592.15327 0 .30473.03272.44396.09592.05999.02959 1.7998 1.04141 1.9317 1.11834.1271.08505.232.1986.306.33135.0482.08137.0846.16901.108.26036v.08877.73964.74551l.7979-.45557.7859-.45562v-.73964c0-.82249 0-.79291-.054-.9586-.0729-.19915-.2019-.37362-.3719-.50294-.06-.04142-3.32364-1.93492-3.47962-2.01776l-.12597-.05917h-.05399-.59993l-.08999.0355c-.06599.02958-.52793.28995-1.79977 1.02368-.94188.54438-1.73379 1.00591-1.76378 1.02958-.10826.07439-.20057.16912-.27161.27879-.07103.10967-.1194.23209-.14234.36026v2.1716 2.17159c.02307.1314.07419.2564.14998.3669.07813.1105.17327.2083.28196.2899.078.0473 3.40758 1.9823 3.49157 2.0237.14361.0665.30029.1009.45894.1009.15864 0 .31534-.0344.45895-.1009l1.1998-.7042c.9779-.5917 1.2838-.7514 1.9378-1.1124.6539-.3609.8339-.4615 1.9437-1.1302l1.1999-.7278c.2515-.1138.5384-.1244.7979-.0295.042.0104.0823.0263.12.0473.072.0355 1.8777 1.1242 1.9317 1.1834.205.1603.342.3903.384.645v2.4201c-.0426.262-.1867.4975-.402.6568-.06.0414-1.7997 1.071-1.9377 1.1302-.1369.0602-.2851.0913-.435.0913-.1498 0-.2981-.0311-.4349-.0913-.048 0-.396-.2248-.9899-.5917l-.9658-.5917c-.1723-.1298-.3016-.3068-.372-.5089-.048-.148-.048-.1065-.054-.9349v-.7574l-.7859.4556-.7859.4556v.7633c0 .8284 0 .8225.042.9645.0341.1039.0847.2018.1499.29.0676.0902.1485.17.24.2367.054.0414 3.3716 1.9822 3.4496 2.0236.078.0415.12.0651.45.0651h.294z" fill="#fff"/><path d="m23.5 12c0 6.3513-5.1487 11.5-11.5 11.5-6.35127 0-11.5-5.1487-11.5-11.5 0-6.35127 5.14873-11.5 11.5-11.5 6.3513 0 11.5 5.14873 11.5 11.5z" stroke="#000" stroke-opacity=".097"/></svg>

<svg width="24" height="24" viewBox="0 0 24 24" fill="none" xmlns="http://www.w3.org/2000/svg">
<path d="M12 24C18.6274 24 24 18.6274 24 12C24 5.37258 18.6274 0 12 0C5.37258 0 0 5.37258 0 12C0 18.6274 5.37258 24 12 24Z" fill="#854CE6"/>
<path d="M15.9325 18.8994L16.0345 18.858L17.7442 17.8639L19.5081 16.8403C19.6022 16.789 19.6873 16.7231 19.76 16.645C19.889 16.5092 19.9727 16.3379 20 16.1539C20 16.071 20 12.0118 20 11.9231C19.9674 11.719 19.8734 11.5294 19.73 11.3787C19.5958 11.2537 19.4443 11.1481 19.2801 11.0651L16.0705 9.21302C15.9358 9.1527 15.7895 9.1215 15.6415 9.1215C15.4936 9.1215 15.3474 9.1527 15.2126 9.21302C15.1586 9.21302 14.7926 9.44378 13.9827 9.91124L12.015 11.0533L10.0712 12.1775C9.47131 12.5444 8.91338 12.8521 8.87138 12.8639C8.73578 12.9319 8.58553 12.9663 8.43346 12.9645C8.28284 12.9648 8.13377 12.9347 7.9955 12.8758C7.92951 12.8758 6.13573 11.8166 6.03974 11.7456C5.94581 11.6751 5.86292 11.5914 5.79377 11.4971C5.717 11.3815 5.66213 11.2532 5.63179 11.1183C5.61036 10.7241 5.61036 10.3291 5.63179 9.93491C5.58354 9.47555 5.59766 9.01189 5.67379 8.55622C5.71322 8.44496 5.7677 8.33947 5.83577 8.24261C5.90386 8.15079 5.98698 8.07078 6.08174 8.00591C6.15373 7.95857 7.88151 6.94675 7.9355 6.90533C8.07474 6.84213 8.22618 6.80941 8.37944 6.80941C8.53271 6.80941 8.68417 6.84213 8.8234 6.90533C8.88339 6.93492 10.6232 7.94674 10.7551 8.02367C10.8822 8.10872 10.9871 8.22227 11.0611 8.35502C11.1093 8.43639 11.1457 8.52403 11.1691 8.61538V8.70415V9.44379C11.1691 9.85208 11.1691 10.1893 11.1691 10.1893L11.967 9.73373L12.7529 9.27811V8.53847C12.7529 7.71598 12.7529 7.74556 12.6989 7.57987C12.626 7.38072 12.497 7.20625 12.327 7.07693C12.267 7.03551 9.00336 5.14201 8.84738 5.05917L8.72141 5H8.66742H8.06749L7.9775 5.0355C7.91151 5.06508 7.44957 5.32545 6.17773 6.05918C5.23585 6.60356 4.44394 7.06509 4.41395 7.08876C4.30569 7.16315 4.21338 7.25788 4.14234 7.36755C4.07131 7.47722 4.02294 7.59964 4 7.72781C4 7.81064 4 7.87574 4 9.89941C4 11.9231 4 11.9941 4 12.071C4.02307 12.2024 4.07419 12.3274 4.14998 12.4379C4.22811 12.5484 4.32325 12.6462 4.43194 12.7278C4.50994 12.7751 7.83952 14.7101 7.92351 14.7515C8.06712 14.818 8.2238 14.8524 8.38245 14.8524C8.54109 14.8524 8.69779 14.818 8.8414 14.7515L10.0412 14.0473C11.0191 13.4556 11.325 13.2959 11.979 12.9349C12.6329 12.574 12.8129 12.4734 13.9227 11.8047L15.1226 11.0769C15.3741 10.9631 15.661 10.9525 15.9205 11.0474C15.9625 11.0578 16.0028 11.0737 16.0405 11.0947C16.1125 11.1302 17.9182 12.2189 17.9722 12.2781C18.1772 12.4384 18.3142 12.6684 18.3562 12.9231C18.3562 13.0295 18.3562 15.2367 18.3562 15.3432C18.3136 15.6052 18.1695 15.8407 17.9542 16C17.8942 16.0414 16.1545 17.071 16.0165 17.1302C15.8796 17.1904 15.7314 17.2215 15.5815 17.2215C15.4317 17.2215 15.2834 17.1904 15.1466 17.1302C15.0986 17.1302 14.7506 16.9054 14.1567 16.5385L13.1909 15.9468C13.0186 15.817 12.8893 15.64 12.8189 15.4379C12.7709 15.2899 12.7709 15.3314 12.7649 14.503V13.7456L11.979 14.2012L11.1931 14.6568V15.4201C11.1931 16.2485 11.1931 16.2426 11.2351 16.3846C11.2692 16.4885 11.3198 16.5864 11.385 16.6746C11.4526 16.7648 11.5335 16.8446 11.625 16.9113C11.679 16.9527 14.9966 18.8935 15.0746 18.9349C15.1526 18.9764 15.1946 19 15.5246 19H15.8186L15.9325 18.8994Z" fill="white"/>
<path d="M23.5 12C23.5 18.3513 18.3513 23.5 12 23.5C5.64873 23.5 0.5 18.3513 0.5 12C0.5 5.64873 5.64873 0.5 12 0.5C18.3513 0.5 23.5 5.64873 23.5 12Z" stroke="black" stroke-opacity="0.097"/>
</svg>
